X:1
T:Soirée Polka
T:SOIRÉE POLKA
T:Composed for and respectfully Dedicated to MISS MARY M. DALLAS
T:STEPHEN C. FOSTER
T:BY
T:Public Domain
T:Public Domain
C:Stephen Forster
Z:Public Domain
%%score { 1 | ( 2 3 ) }
L:1/8
M:2/4
K:C
V:1 treble nm="Piano"
V:2 bass 
V:3 bass 
V:1
!p! G(3G/A/G/ .e z/ G/ | .A.A !^!d>c | B(B/c/) .d/.e/.f/.g/ | .a>.a g2 |!mf! G(3G/A/G/ .e z/ G/ | %5
 .A.A !^!d>c | B/A/G .a>B |1 cc c2 :|2 cc c |:!p! g |!>(! a(3(g/^f/g/ a)g!>)! | %11
!>(! a(3(g/^f/g/ a)g!>)! | .b>.b .d.b | .c'>.c' .e.g |!>(! a(3(g/^f/g/ a)g!>)! | %15
!>(! a(3(g/^f/g/ a)g!>)! | b>b db | (d'/c'/)(c'/b/) c' ::[K:F] z | c.[db].[ca].[Bg] | %20
 [Af]/F/A/d/ c2 | e/!2!B/!1!c/!2!e/ !3!g>!4!^g | a/A/c/f/ a2 | c[db][ca][Bg] | [Af]/F/A/d/ c2 | %25
 e/B/c/e/ a>g |1 f [Af][Af] :|2 f[Af] [Af]2 ||[K:C]!f! (3g/a/g/.e (3g/a/g/.e | %29
 (3c'/d'/c'/.a (3g/a/g/.e | (3e/f/e/d !>!d>c | (3c/d/c/B B2 | (3g/a/g/e (3g/a/g/e | %33
 (3c'/d'/c'/a (3g/a/g/e | (3e/f/e/d e>d | .c.c.c.c ||[K:F] c[db][ca][Bg] | [Af]/F/A/d/ c2 | %38
 e/!2!B/!1!c/!2!e/ !3!g>!4!^g | a/A/c/f/ a2 | c[db][ca][Bg] | [Af]/F/A/d/ c2 | e/B/c/e/ a>g | %43
 f[Af] [Af]2 |:[K:C]!p! G(3G/A/G/ .e z/ G/ | .A.A !^!d>c | B(B/c/) .d/.e/.f/.g/ | .a>.a g2 | %48
!mf! G(3G/A/G/ .e z/ G/ | .A.A !^!d>c | B/A/G .a>B |1 cc c2 :|2 cc c |:!p! g | %54
!>(! (a(3g/^f/g/ ag)!>)! |!>(! (a(3g/^f/g/ ag)!>)! | .b>.b .d.b | .c'>.c' .e.g | %58
!>(! (a(3g/^f/g/ ag)!>)! |!>(! (a(3g/^f/g/ ag)!>)! | b>b db | (d'/c'/)(c'/b/) c' :| %62
V:2
 C,[G,CE][G,CE] z | [F,,F,][F,A,D][F,A,D] z | [G,,G,][G,B,F][G,B,F] z | C,[G,CE][G,CE] z | %4
 C,[G,CE][G,CE] z | [F,,F,][F,A,D][F,A,D] z | [G,,G,][G,DF][G,DF] z |1 [CE][CE] [CE]2 :|2 %8
 [CE][CE] [CE] |: z |[K:treble] B,[DFG] G,[DFG] | C[EG] G,[EG] | D[FG] G,[FG] | C[EG] G,[EG] | %14
 B,[DFG] G,[DFG] | C[EG] G,[EG] | D[FG] G,[FG] | C[EG] [CE] ::[K:F] z | %19
[K:bass] C,[G,B,C][G,B,C] z | F,[A,C][A,C] z | C,[B,CE][B,CE] z | [F,,F,][A,CF][A,CF] z | %23
 C,[G,B,C][G,B,C] z | F,[A,C][A,C] z | C,[B,CE][B,CE] z |1 F, [A,CF][F,CF] :|2 F,[A,CF] [F,CF]2 || %28
[K:C] .C[I:staff -1][EG][I:staff +1] .C[I:staff -1][EG] | %29
[I:staff +1] .C[I:staff -1][FA][I:staff +1] .C[I:staff -1][EG] |[I:staff +1] F,[A,D] ^F,[A,D] | %31
 G,[B,D][B,D][B,D] | C[I:staff -1][EG][I:staff +1] C[I:staff -1][EG] | %33
[I:staff +1] C[I:staff -1][FA][I:staff +1] C[I:staff -1][EG] |[I:staff +1] G,[B,F][B,F][B,F] | %35
 [CE] z z2 ||[K:F] C,[G,B,C][G,B,C] z | F,[A,C][A,C] z | C,[B,CE][B,CE] z | F,[A,CF][A,CF] z | %40
 C,[G,B,C][G,B,C] z | F,[A,C][A,C] z | C,[B,CE][B,CE] z | F,[A,CF] [F,CF]2 |: %44
[K:C] C,[G,CE][G,CE] z | [F,,F,][F,A,D][F,A,D] z | [G,,G,][G,DF][G,B,F] z | C,[G,CE][G,CE] z | %48
 C,[G,CE][G,CE] z | [F,,F,][F,A,D][F,A,D] z | [G,,G,][G,DF][G,DF] z |1 [CE][CE] [CE]2 :|2 %52
 [CE][CE] [CE] |: z |[K:treble] B,[DFG] G,[DFG] | C[EG] G,[EG] | D[FG] G,[FG] | C[EG] G,[EG] | %58
 B,[DFG] G,[DFG] | C[EG] G,[EG] | D[FG] G,[FG] | C[EG] [CE] :| %62
V:3
 x4 | x4 | x4 | x4 | x4 | x4 | x4 |1 x4 :|2 x3 |: x |[K:treble] B,2 G,2 | C2 G,2 | D2 G,2 | %13
 C2 G,2 | B,2 G,2 | C2 G,2 | D2 G,2 | x3 ::[K:F] x |[K:bass] x4 | x4 | x4 | x4 | x4 | x4 | x4 |1 %26
 x3 :|2 x4 ||[K:C] x4 | x4 | F,2 ^F,2 | G,2 x2 | x4 | x4 | x4 | x4 ||[K:F] x4 | x4 | x4 | x4 | x4 | %41
 x4 | x4 | x4 |:[K:C] x4 | x4 | x4 | x4 | x4 | x4 | x4 |1 x4 :|2 x3 |: x |[K:treble] B,2 G,2 | %55
 C2 G,2 | D2 G,2 | C2 G,2 | B,2 G,2 | C2 G,2 | D2 G,2 | x3 :| %62

